fs/tab_desktop_copy_20_regular.svg

<svg viewBox="0 0 20 20" fill="none" xmlns="http://www.w3.org/2000/svg" height="1em" width="1em">
  <path d="M7.50004 2C6.11933 2 5.00004 3.11929 5.00004 4.5V12.5C5.00004 13.8807 6.11933 15 7.50004 15H15.5C16.8807 15 18 13.8807 18 12.5V4.5C18 3.11929 16.8807 2 15.5 2H7.50004ZM17 4.5V5H10.5C10.2239 5 10 4.77614 10 4.5V3H15.5C16.3285 3 17 3.67157 17 4.5ZM9.00004 4.5C9.00004 5.32843 9.67161 6 10.5 6H17V12.5C17 13.3284 16.3285 14 15.5 14H7.50004C6.67161 14 6.00004 13.3284 6.00004 12.5V4.5C6.00004 3.67157 6.67161 3 7.50004 3H9.00004V4.5ZM12.5002 18C13.7097 18 14.7186 17.1411 14.9502 16H13.9149C13.709 16.5826 13.1534 17 12.5002 17H6.00024C4.34339 17 3.00024 15.6568 3.00024 14V7.49998C3.00024 6.84687 3.41765 6.29125 4.00025 6.08533V5.04999C2.85913 5.28162 2.00024 6.2905 2.00024 7.49998V14C2.00024 16.2091 3.79111 18 6.00024 18H12.5002Z" fill="#212121"/>
</svg>

<svg viewBox="0 0 20 20" fill="none" xmlns="http://www.w3.org/2000/svg" height="1em" width="1em">
  <path d="M7.5 2A2.5 2.5 0 0 0 5 4.5v8A2.5 2.5 0 0 0 7.5 15h8a2.5 2.5 0 0 0 2.5-2.5v-8A2.5 2.5 0 0 0 15.5 2h-8ZM17 4.5V5h-6.5a.5.5 0 0 1-.5-.5V3h5.5A1.5 1.5 0 0 1 17 4.5Zm-8 0A1.5 1.5 0 0 0 10.5 6H17v6.5a1.5 1.5 0 0 1-1.5 1.5h-8A1.5 1.5 0 0 1 6 12.5v-8A1.5 1.5 0 0 1 7.5 3H9v1.5ZM12.5 18a2.5 2.5 0 0 0 2.45-2h-1.035a1.5 1.5 0 0 1-1.415 1H6a3 3 0 0 1-3-3V7.5a1.5 1.5 0 0 1 1-1.415V5.05A2.5 2.5 0 0 0 2 7.5V14a4 4 0 0 0 4 4h6.5Z" fill="#212121"/>
</svg>
